X:151 
T:O'Donoghue's Pub* 
F:file ID: cre.5/151odon_p
B:CRE5.038 (gan ainm)
M:6/8
Q:160
R:jig
K:D
e|fed cAF|G2G ABc|AdB cAF|GFG Ade|
fde dcA|GFG ABc|AdB cAF|Adc d2:|
e|fed efg|eAA eAA|fed efg|age d2e|
fed efg|eAA eAA|fg/a/f g2e|adc d2:|

%%%

